modules/feathericon/icons/pizza.svg

<?xml version="1.0" encoding="UTF-8"?>
<svg width="14px" height="14px" viewBox="0 0 14 14" version="1.1" xmlns="http://www.w3.org/2000/svg" xmlns:xlink="http://www.w3.org/1999/xlink">
    <!-- Generator: sketchtool 48.1 (47250) - http://www.bohemiancoding.com/sketch -->
    <title>pizza</title>
    <desc>Created with sketchtool.</desc>
    <defs></defs>
    <g id="food" stroke="none" stroke-width="1" fill="none" fill-rule="evenodd">
        <g id="pizza" fill="#000000">
            <path d="M7,14 C10.8659932,14 14,10.8659932 14,7 C14,3.13400675 10.8659932,0 7,0 C3.13400675,0 0,3.13400675 0,7 C0,10.8659932 3.13400675,14 7,14 Z M7,13 C10.3137085,13 13,10.3137085 13,7 C13,3.6862915 10.3137085,1 7,1 C3.6862915,1 1,3.6862915 1,7 C1,10.3137085 3.6862915,13 7,13 Z M3,8 C3.55228475,8 4,7.55228475 4,7 C4,6.44771525 3.55228475,6 3,6 C2.44771525,6 2,6.44771525 2,7 C2,7.55228475 2.44771525,8 3,8 Z M6,8 L7,8 L7,9 L6,8 Z M10,9 L10,10 L9,10 L10,9 Z M4,4 L5,4 L4,5 L4,4 Z M8,7 L9,7 L9,8 L8,8 L8,7 Z M4,9 L5,9 L5,10 L4,10 L4,9 Z M5,6 L6,6 L6,7 L5,7 L5,6 Z M9,4 L10,4 L10,5 L9,5 L9,4 Z M7,5 L8,6 L7,6 L7,5 Z M11,8 C11.5522847,8 12,7.55228475 12,7 C12,6.44771525 11.5522847,6 11,6 C10.4477153,6 10,6.44771525 10,7 C10,7.55228475 10.4477153,8 11,8 Z M7,12 C7.55228475,12 8,11.5522847 8,11 C8,10.4477153 7.55228475,10 7,10 C6.44771525,10 6,10.4477153 6,11 C6,11.5522847 6.44771525,12 7,12 Z M7,4 C7.55228475,4 8,3.55228475 8,3 C8,2.44771525 7.55228475,2 7,2 C6.44771525,2 6,2.44771525 6,3 C6,3.55228475 6.44771525,4 7,4 Z" id="Shape"></path>
        </g>
    </g>
</svg>

<svg width="14" height="14" viewBox="0 0 14 14" xmlns="http://www.w3.org/2000/svg"><path d="M7 14A7 7 0 1 0 7 0a7 7 0 0 0 0 14zm0-1A6 6 0 1 0 7 1a6 6 0 0 0 0 12zM3 8a1 1 0 1 0 0-2 1 1 0 0 0 0 2zm3 0h1v1L6 8zm4 1v1H9l1-1zM4 4h1L4 5V4zm4 3h1v1H8V7zM4 9h1v1H4V9zm1-3h1v1H5V6zm4-2h1v1H9V4zM7 5l1 1H7V5zm4 3a1 1 0 1 0 0-2 1 1 0 0 0 0 2zm-4 4a1 1 0 1 0 0-2 1 1 0 0 0 0 2zm0-8a1 1 0 1 0 0-2 1 1 0 0 0 0 2z" fill="#000" fill-rule="evenodd"/></svg>
